X: 184
U:~=!turn!
M:C
L:1/8
K:G
[2 E>A (G/F/)(E/D/) {/F}G2 G || B | {/^c}d>BA>G {/f}g>dTB>G | (3cec (3BdB (A>B)c>e | {/^c}d>BA>G {/f}g>dB>G | (3ced (3cBA (3GDC (3B,A,G, |
{/^c}d>BA>G {/f}g>dB<G | (3cec (3BdB {cB}(A>B)c>e | (3dcB (3AGF (3GFE (3DCB, | (3CDE (3DEF (3GDC (3B,A,G, !segno!|]


